lib/brands/icons/apple-pay.svg

<svg xmlns="http://www.w3.org/2000/svg" fill="none" aria-hidden="true" viewBox="0 0 48 48"><g id="apple-pay-Icon"><path id="Vector" fill="black" d="M11.3089 18.1103C10.8402 18.6665 10.0903 19.104 9.34035 19.0415C9.24661 18.2915 9.61533 17.4916 10.0465 17.0042C10.5153 16.4355 11.3339 16.0292 12.0026 15.998C12.0776 16.7729 11.7714 17.5416 11.3089 18.1103ZM11.9901 19.1852C10.9027 19.1227 9.97155 19.8039 9.45909 19.8039C8.93413 19.8039 8.1467 19.2165 7.28427 19.2352C6.16561 19.254 5.1282 19.8852 4.55949 20.8913C3.38459 22.9099 4.25327 25.8909 5.39068 27.5345C5.94688 28.347 6.60933 29.2406 7.48425 29.2094C8.31544 29.1782 8.64041 28.6719 9.64033 28.6719C10.6465 28.6719 10.9402 29.2094 11.8151 29.1969C12.7213 29.1782 13.29 28.3845 13.8462 27.572C14.4774 26.6471 14.7399 25.7534 14.7524 25.7034C14.7337 25.6847 13.0025 25.0222 12.9838 23.0224C12.9651 21.3475 14.3524 20.5539 14.4149 20.5039C13.6337 19.3415 12.4151 19.2165 11.9901 19.1852V19.1852ZM18.2646 16.9229V29.1032H20.1582V24.941H22.7767C25.1703 24.941 26.8452 23.2974 26.8452 20.9226C26.8452 18.5478 25.1953 16.9229 22.8392 16.9229H18.2646V16.9229ZM20.1582 18.5165H22.3393C23.9829 18.5165 24.9203 19.3915 24.9203 20.9288C24.9203 22.4662 23.9829 23.3536 22.333 23.3536H20.1582V18.5165ZM30.2949 29.1969C31.4823 29.1969 32.5822 28.597 33.0821 27.6408H33.1196V29.1032H34.8695V23.0412C34.8695 21.2851 33.4634 20.1476 31.301 20.1476C29.295 20.1476 27.8076 21.2976 27.7513 22.8724H29.4574C29.6012 22.1225 30.2949 21.6288 31.2448 21.6288C32.401 21.6288 33.0509 22.1662 33.0509 23.1599V23.8348L30.6886 23.9786C28.495 24.1098 27.3076 25.0097 27.3076 26.5721C27.3139 28.147 28.5388 29.1969 30.2949 29.1969ZM30.8073 27.7533C29.8012 27.7533 29.1575 27.2658 29.1575 26.5284C29.1575 25.7597 29.7762 25.316 30.9573 25.2472L33.0572 25.116V25.8034C33.0572 26.9408 32.0885 27.7533 30.8073 27.7533V27.7533ZM37.2131 32.4154C39.0567 32.4154 39.9253 31.7092 40.6815 29.5781L44 20.2664H42.0752L39.8503 27.4595H39.8128L37.588 20.2664H35.6132L38.8129 29.1344L38.6379 29.6719C38.3505 30.5843 37.8818 30.9405 37.0443 30.9405C36.8943 30.9405 36.6069 30.9218 36.4881 30.9093V32.3716C36.6006 32.3966 37.0693 32.4154 37.2131 32.4154V32.4154Z"/></g></svg>

<svg xmlns="http://www.w3.org/2000/svg" fill="none" aria-hidden="true" viewBox="0 0 48 48"><path fill="#000" d="M11.309 18.11c-.469.556-1.219.994-1.969.931-.093-.75.275-1.55.707-2.037.468-.569 1.287-.975 1.956-1.006.075.775-.232 1.544-.694 2.112Zm.681 1.075c-1.087-.062-2.018.619-2.53.619-.526 0-1.313-.587-2.176-.569-1.118.019-2.156.65-2.725 1.656-1.174 2.019-.306 5 .832 6.644.556.812 1.218 1.706 2.093 1.674.831-.03 1.156-.537 2.156-.537 1.006 0 1.3.537 2.175.525.906-.019 1.475-.813 2.031-1.625a7.065 7.065 0 0 0 .906-1.869c-.018-.018-1.75-.68-1.768-2.68-.019-1.675 1.368-2.47 1.43-2.52-.78-1.162-1.999-1.287-2.424-1.318Zm6.275-2.262v12.18h1.893v-4.162h2.619c2.393 0 4.068-1.644 4.068-4.018 0-2.375-1.65-4-4.006-4h-4.574Zm1.893 1.594h2.181c1.644 0 2.581.875 2.581 2.412s-.937 2.425-2.587 2.425h-2.175v-4.837Zm10.137 10.68c1.187 0 2.287-.6 2.787-1.556h.038v1.462h1.75v-6.062c0-1.756-1.407-2.893-3.569-2.893-2.006 0-3.493 1.15-3.55 2.724h1.706c.144-.75.838-1.243 1.788-1.243 1.156 0 1.806.537 1.806 1.53v.676l-2.362.144c-2.194.13-3.381 1.03-3.381 2.593.006 1.575 1.23 2.625 2.987 2.625Zm.512-1.444c-1.006 0-1.65-.487-1.65-1.225 0-.768.62-1.212 1.8-1.28l2.1-.132v.687c0 1.138-.968 1.95-2.25 1.95Zm6.406 4.662c1.844 0 2.712-.706 3.468-2.837L44 20.266h-1.925L39.85 27.46h-.037l-2.225-7.194h-1.975l3.2 8.868-.175.538c-.288.912-.756 1.268-1.594 1.268a7.56 7.56 0 0 1-.556-.03v1.462c.113.025.581.043.725.043Z"/></svg>
